static/img/icons/mozilla.svg

<svg width="168px" height="48px" viewBox="0 0 168 48" version="1.1" xmlns="http://www.w3.org/2000/svg" xmlns:xlink="http://www.w3.org/1999/xlink">
    <!-- Generator: Sketch 44.1 (41455) - http://www.bohemiancoding.com/sketch -->
    <desc>Created with Sketch.</desc>
    <defs></defs>
    <g id="Symbols" stroke="none" stroke-width="1" fill="none" fill-rule="evenodd">
        <g id="Block/Footer" transform="translate(-1150.000000, -228.000000)" fill="#FFFFFF">
            <g id="Icon/Mozilla-Logo" transform="translate(1150.000000, 228.000000)">
                <g id="moz-logo-one-color-white-rgb">
                    <g id="Layer_1" fill-rule="nonzero">
                        <g id="Group">
                            <path d="M62.5864078,21.2504854 C59.5106796,21.2504854 57.6,23.5339806 57.6,27.4951456 C57.6,31.1300971 59.2776699,33.9262136 62.5398058,33.9262136 C65.6621359,33.9262136 67.7126214,31.4097087 67.7126214,27.4019417 C67.7126214,23.161165 65.4291262,21.2504854 62.5864078,21.2504854 Z" id="Shape"></path>
                            <path d="M144.885437,31.8291262 C144.885437,33.1805825 145.537864,34.2524272 147.35534,34.2524272 C149.499029,34.2524272 151.782524,32.7145631 151.92233,29.2194175 C150.943689,29.0796117 149.871845,28.9398058 148.893204,28.9398058 C146.749515,28.9398058 144.885437,29.5456311 144.885437,31.8291262 Z" id="Shape"></path>
                            <path d="M0.0466019417,0 L0.0466019417,48 L167.813592,48 L167.813592,0 L0.0466019417,0 Z M48.9786408,38.2135922 L40.1242718,38.2135922 L40.1242718,26.2368932 C40.1242718,22.6019417 38.7728155,21.2038835 36.3961165,21.2038835 C33.5067961,21.2038835 32.2019417,23.2543689 32.2019417,26.1902913 L32.2019417,33.5533981 L34.9980583,33.5533981 L34.9980583,38.2135922 L26.6097087,38.2135922 L26.6097087,26.2368932 C26.6097087,22.6019417 25.2582524,21.2038835 22.8815534,21.2038835 C19.992233,21.2038835 18.6873786,23.2543689 18.6873786,26.1902913 L18.6873786,33.5533981 L22.8815534,33.5533981 L22.8815534,38.2135922 L9.83300971,38.2135922 L9.83300971,33.5533981 L12.6291262,33.5533981 L12.6291262,21.4368932 L9.83300971,21.4368932 L9.83300971,17.2427184 L18.6873786,17.2427184 L18.6873786,20.2252427 C20.0854369,17.9883495 22.1825243,16.6368932 25.1184466,16.6368932 C28.1475728,16.6368932 30.9436893,18.0815534 31.968932,21.1572816 C33.1339806,18.361165 35.6038835,16.6368932 38.9126214,16.6368932 C42.6873786,16.6368932 46.2291262,18.9203883 46.2291262,23.9067961 L46.2291262,33.5533981 L49.0252427,33.5533981 L49.0252427,38.2135922 L48.9786408,38.2135922 Z M62.3533981,38.4932039 C55.8757282,38.4932039 51.4019417,34.5320388 51.4019417,27.8213592 C51.4019417,21.6699029 55.1300971,16.5902913 62.6796117,16.5902913 C70.2291262,16.5902913 73.9106796,21.6699029 73.9106796,27.5417476 C73.9106796,34.2524272 69.0640777,38.4932039 62.3533981,38.4932039 Z M96.1864078,38.2135922 L77.8718447,38.2135922 L77.2660194,34.8582524 L88.823301,21.4368932 L82.2524272,21.4368932 L81.3203883,24.792233 L76.9864078,24.4660194 L77.7320388,17.2427184 L96.1398058,17.2427184 L96.6058252,20.3650485 L84.9553398,33.5533981 L91.7592233,33.5533981 L92.7378641,30.2446602 L97.4912621,30.7572816 L96.1864078,38.2135922 Z M108.163107,38.2135922 L102.104854,38.2135922 L102.104854,30.2912621 L108.163107,30.2912621 L108.163107,38.2135922 Z M108.163107,24.6990291 L102.104854,24.6990291 L102.104854,17.2427184 L108.163107,17.2427184 L108.163107,24.6990291 Z M112.124272,38.2135922 L121.165049,6.05825243 L127.083495,6.05825243 L117.996117,38.2135922 L112.124272,38.2135922 Z M124.287379,38.2135922 L133.374757,6.05825243 L139.293204,6.05825243 L130.205825,38.2135922 L124.287379,38.2135922 Z M156.535922,38.4932039 C153.739806,38.4932039 152.201942,36.8621359 151.92233,34.2990291 C150.71068,36.4427184 148.56699,38.4932039 145.165049,38.4932039 C142.135922,38.4932039 138.687379,36.8621359 138.687379,32.4815534 C138.687379,27.3087379 143.673786,26.0970874 148.473786,26.0970874 C149.638835,26.0970874 150.990291,26.1436893 151.92233,26.2834951 L151.92233,25.631068 C151.92233,23.4873786 151.875728,20.9242718 148.473786,20.9242718 C147.215534,20.9242718 146.236893,21.0174757 145.258252,21.5300971 L144.559223,23.9067961 L139.805825,23.3941748 L140.64466,18.5475728 C144.326214,17.0563107 146.236893,16.6368932 149.685437,16.6368932 C154.205825,16.6368932 158.073786,18.9669903 158.073786,23.7669903 L158.073786,32.9009709 C158.073786,34.1126214 158.493204,34.5320388 159.471845,34.5320388 C159.751456,34.5320388 159.984466,34.4854369 160.31068,34.392233 L160.357282,37.561165 C159.192233,38.1203883 157.840777,38.4932039 156.535922,38.4932039 Z" id="Shape"></path>
                        </g>
                    </g>
                </g>
            </g>
        </g>
    </g>
</svg>

<svg width="168" height="48" xmlns="http://www.w3.org/2000/svg"><g fill-rule="nonzero" fill="#FFF"><path d="M62.586 21.25c-3.075 0-4.986 2.284-4.986 6.245 0 3.635 1.678 6.431 4.94 6.431 3.122 0 5.173-2.516 5.173-6.524 0-4.24-2.284-6.152-5.127-6.152zM144.885 31.83c0 1.35.653 2.422 2.47 2.422 2.144 0 4.428-1.537 4.567-5.033-.978-.14-2.05-.28-3.029-.28-2.143 0-4.008.607-4.008 2.89z"/><path d="M.047 0v48h167.767V0H.047zm48.932 38.214h-8.855V26.237c0-3.635-1.351-5.033-3.728-5.033-2.89 0-4.194 2.05-4.194 4.986v7.363h2.796v4.66H26.61V26.238c0-3.635-1.352-5.033-3.728-5.033-2.89 0-4.195 2.05-4.195 4.986v7.363h4.195v4.66H9.833v-4.66h2.796V21.437H9.833v-4.194h8.854v2.982c1.398-2.237 3.496-3.588 6.431-3.588 3.03 0 5.826 1.445 6.85 4.52 1.166-2.796 3.636-4.52 6.945-4.52 3.774 0 7.316 2.283 7.316 7.27v9.646h2.796v4.66h-.046zm13.374.28c-6.477 0-10.951-3.962-10.951-10.673 0-6.151 3.728-11.23 11.278-11.23 7.55 0 11.23 5.079 11.23 10.95 0 6.711-4.846 10.952-11.557 10.952zm33.833-.28H77.872l-.606-3.356 11.557-13.421h-6.57l-.933 3.355-4.334-.326.746-7.223H96.14l.466 3.122-11.65 13.188h6.803l.979-3.308 4.753.512-1.305 7.457zm11.977 0h-6.058V30.29h6.058v7.923zm0-13.515h-6.058v-7.456h6.058v7.456zm3.961 13.515l9.041-32.156h5.918l-9.087 32.156h-5.872zm12.163 0l9.088-32.156h5.918l-9.087 32.156h-5.919zm32.249.28c-2.796 0-4.334-1.632-4.614-4.195-1.211 2.144-3.355 4.194-6.757 4.194-3.03 0-6.478-1.63-6.478-6.011 0-5.173 4.987-6.385 9.787-6.385 1.165 0 2.516.047 3.448.186v-.652c0-2.144-.046-4.707-3.448-4.707-1.258 0-2.237.093-3.216.606l-.699 2.377-4.753-.513.839-4.846c3.681-1.492 5.592-1.911 9.04-1.911 4.52 0 8.389 2.33 8.389 7.13v9.134c0 1.212.42 1.631 1.398 1.631.28 0 .512-.047.839-.14l.046 3.17c-1.165.558-2.516.931-3.821.931z"/></g></svg>
